icons/svgs/lock-open-solid.svg

<svg width="24" height="24" viewBox="0 0 24 24" fill="none" xmlns="http://www.w3.org/2000/svg">
<path d="M15 7.625V9.5H16.25C17.6172 9.5 18.75 10.6328 18.75 12V19.5C18.75 20.9062 17.6172 22 16.25 22H3.75C2.34375 22 1.25 20.9062 1.25 19.5V12C1.25 10.6328 2.34375 9.5 3.75 9.5H12.5V7.625C12.5 4.53906 15 2 18.125 2C21.2109 2 23.75 4.53906 23.75 7.625V9.5C23.75 10.2031 23.1641 10.75 22.5 10.75C21.7969 10.75 21.25 10.2031 21.25 9.5V7.625C21.25 5.90625 19.8438 4.5 18.125 4.5C16.3672 4.5 15 5.90625 15 7.625Z" fill="black"/>
</svg>

<svg xmlns="http://www.w3.org/2000/svg" width="24" height="24" fill="currentColor" class="icon-lock-open-solid" viewBox="0 0 24 24">
  <mask id="a" width="23" height="20" x="1" y="2" maskUnits="userSpaceOnUse" style="mask-type:alpha">
    <path d="M15 7.625V9.5h1.25c1.367 0 2.5 1.133 2.5 2.5v7.5c0 1.406-1.133 2.5-2.5 2.5H3.75a2.47 2.47 0 0 1-2.5-2.5V12c0-1.367 1.094-2.5 2.5-2.5h8.75V7.625C12.5 4.539 15 2 18.125 2c3.086 0 5.625 2.54 5.625 5.625V9.5c0 .703-.586 1.25-1.25 1.25-.703 0-1.25-.547-1.25-1.25V7.625A3.134 3.134 0 0 0 18.125 4.5 3.11 3.11 0 0 0 15 7.625"/>
  </mask>
  <g mask="url(#a)">
    <path d="M0 0h24v24H0z"/>
  </g>
</svg>
